X: 1689
T: the Humors of Enniskean   #2
R: hornpipe, reel
%S: s:2 b:14(7+7)
B: O'Neill's 1850 #1689
O: F.O'Neill
M: 2/4
L: 1/16
K: G
D2 \
| GFGB edBG | AGAB AGED \
| GFGB ed^cd | (3(efg) fed 2(ga) |\
| bgaf gfed | (3(efg) dB AFED | GABc dBge |
| dBAB G2 :: (ga) | babg agef | gfge dBGB |\
[1,3 cBAB cdef | agfe d2 :|\
[2,4 GABc dBgg | agfa g2 :|
